src/images/flag.svg

<?xml version="1.0" encoding="UTF-8"?>
<svg width="24px" height="24px" viewBox="0 0 24 24" version="1.1" xmlns="http://www.w3.org/2000/svg" xmlns:xlink="http://www.w3.org/1999/xlink">
    <title>icon/flag</title>
    <defs>
        <path d="M2.66406161,4.43344991 L13.1665501,22.5640616 L11.4359384,23.5665501 L0.933449911,5.43593839 L2.66406161,4.43344991 Z M17.5508715,0.109398236 L22.9654571,9.70798184 L22.3679097,10.2442423 C21.1718174,11.3176585 19.85705,11.8336876 18.2685732,11.9936103 C17.8175166,12.0390213 17.4406362,12.0552444 16.8497842,12.0565531 L16.8497842,12.0565531 L15.8993165,12.0519751 C13.1827314,12.0496299 12.2336046,12.4225768 11.1692901,14.2943022 L11.1692901,14.2943022 L10.2965241,15.8291666 L4.747974,5.99310056 L5.03496881,5.49828191 C6.58137125,2.83207081 8.21528888,2.27980717 11.8028362,2.28712788 L11.8028362,2.28712788 L12.232217,2.28711347 C12.5275816,2.28621014 12.7423337,2.28296296 12.9426249,2.27553618 L12.9426249,2.27553618 L13.2404851,2.26103184 C14.6810485,2.17514459 15.6897383,1.82359986 16.6225242,0.964454895 L16.6225242,0.964454895 L17.5508715,0.109398236 Z M16.995,3.194 L16.7787701,3.32658149 C15.7809888,3.90563594 14.6756913,4.17901545 13.3595149,4.25748668 C13.1288392,4.2712397 12.9240502,4.27911955 12.6733542,4.28330099 L12.6733542,4.28330099 L12.2539055,4.28707119 L11.5197606,4.28765215 C9.06233974,4.30276225 8.0334927,4.60726225 7.08140512,5.99713595 L7.08140512,5.99713595 L7.062,6.026 L10.385,11.916 L10.5292368,11.7565883 C11.7813868,10.405989 13.3138906,10.0536862 15.8930643,10.05216 L15.8930643,10.05216 L16.4217104,10.0553272 C16.997902,10.0591925 17.3621637,10.0547503 17.6959733,10.0341215 L17.6959733,10.0341215 L18.0682323,10.0036698 C18.8929526,9.92063954 19.5860061,9.72267487 20.21847,9.35379509 L20.21847,9.35379509 L20.404,9.238 L16.995,3.194 Z" id="path-1"></path>
    </defs>
    <g id="icon/flag" stroke="none" stroke-width="1" fill="none" fill-rule="evenodd">
        <mask id="mask-2" fill="white">
            <use xlink:href="#path-1"></use>
        </mask>
        <use id="Combined-Shape" fill="#111111" fill-rule="nonzero" xlink:href="#path-1"></use>
        <g id="colour/purple" mask="url(#mask-2)" fill="#475DA7">
            <rect id="Rectangle" x="0" y="0" width="24" height="24"></rect>
        </g>
    </g>
</svg>

<svg xmlns="http://www.w3.org/2000/svg" xmlns:xlink="http://www.w3.org/1999/xlink" width="24" height="24" viewBox="0 0 24 24">
    <defs>
        <path id="9v7dk28sja" d="M2.664 4.433l10.503 18.131-1.731 1.003L.933 5.436l1.731-1.003zM17.551.11l5.414 9.599-.597.536c-1.196 1.074-2.51 1.59-4.1 1.75-.45.045-.827.061-1.418.063l-.95-.005c-2.717-.002-3.666.37-4.73 2.242l-.873 1.535-5.549-9.836.287-.495c1.546-2.666 3.18-3.218 6.768-3.21h.43c.295-.002.51-.005.71-.012l.297-.015c1.441-.086 2.45-.437 3.383-1.297L17.55.11zm-.556 3.085l-.216.133c-.998.579-2.103.852-3.42.93-.23.014-.435.022-.686.026l-.42.004h-.733c-2.458.016-3.487.32-4.439 1.71l-.019.029 3.323 5.89.144-.16c1.252-1.35 2.785-1.702 5.364-1.704l.529.003c.576.004.94 0 1.274-.02l.372-.031c.825-.083 1.518-.281 2.15-.65l.186-.116-3.409-6.044z"/>
    </defs>
    <g fill="none" fill-rule="evenodd">
        <g>
            <g>
                <g transform="translate(-698 -532) translate(66 301) translate(632 231)">
                    <mask id="d1yoc5kcqb" fill="#fff">
                        <use xlink:href="#9v7dk28sja"/>
                    </mask>
                    <use fill="#111" fill-rule="nonzero" xlink:href="#9v7dk28sja"/>
                    <g fill="#DC3645" mask="url(#d1yoc5kcqb)">
                        <path d="M0 0H24V24H0z"/>
                    </g>
                </g>
            </g>
        </g>
    </g>
</svg>
